X:1
T:Dublin (Smith), CM
T:Dublin (Smith), CM
T:Isaac Smith (1734-1805)
T:Public Domain Courtesy of the Cyber Hymnal™
C:Isaac Smith (1734-1805)
Z:Public Domain
Z:Courtesy of the Cyber Hymnal™
%%score ( 1 2 ) ( 3 4 )
L:1/8
M:3/4
K:G
V:1 treble 
V:2 treble 
V:3 bass 
V:4 bass 
V:1
 [GB]2 | ([GB]2 [Fd]2) [Ec]2 | (B2 A2) [DG]2 | (A2 E2) [DF]2 | [DG]4 [FA]2 | (B2 ^c2) [Fd]2 | %6
 ([EG]2 [DF]2) [^CE]2 | D4 [DG]2 | [EA]4 [EB]2 | c4 [GB]2 | A2 B2 [EG]2 | (G2 F2) D2 | %12
 ([Dd]2 [Fc]2) [GB]2 | (A2 E2) [DF]2 | [DG]4 |] %15
V:2
 x2 | x6 | D4 x2 | E4 x2 | x6 | G4 x2 | x6 | D4 x2 | x6 | (E2 F2) x2 | E4 x2 | D4 D2 | x6 | E4 x2 | %14
 x4 |] %15
V:3
 G,2 | G,4 G,2 | G,2 [F,C]2 [G,B,]2 | C2 A,2 [D,A,]2 | [G,B,]4 [D,D]2 | ([G,D]2 [E,A,]2) [D,A,]2 | %6
 ([G,B,]2 A,2) [A,,G,]2 | [D,F,]4 [B,,G,]2 | [C,E,]4 [B,,^G,]2 | (A,2 D2) [B,,D]2 | %10
 [C,C]4 [^C,A,]2 | (B,2 A,2) [C,F,]2 | ([B,,G,]2 [A,,D]2) [G,,D]2 | (C3 B,) [D,A,]2 | [G,,B,]4 |] %15
V:4
 G,2 | G,4 G,2 | G,2 x4 | C,4 x2 | x6 | x6 | x2 A,2 x2 | x6 | x6 | A,,4 x2 | x6 | D,4 x2 | x6 | %13
 C,4 x2 | x4 |] %15

